X:1
T:60 Lessons for 2 Guitars, Op.168 - Joseph Küffner (1776 - 1856)
T:Leçon No.50
T:60 Lessons for 2 Guitars, Op.168 "à l'usage des commençants"
T:Joseph Küffner (1776 - 1856)
%%score { ( 1 2 ) ( 3 4 ) } { 5 6 }
L:1/8
Q:1/4=120
M:3/4
K:A
V:1 treble-8 nm="Classical Guitar"
V:2 treble-8 
V:3 tab stafflines=6 strings=E2,A2,D3,G3,B3,E4 nostems nm="Guitare classique [Tablature]"
V:4 tab stafflines=6 strings=E2,A2,D3,G3,B3,E4 nostems 
V:5 treble-8 nm="Guitare classique"
V:6 tab stafflines=6 strings=E2,A2,D3,G3,B3,E4 nostems nm="Guitare classique [Tablature]"
V:1
"^Ländler""_" [Ac]2 [Ac]2 [Bd]2 | [ce]2 !>![ca]4 | z2 [Bdg]2 [Bdg]2 | z2 [cea]2 [cea]2 | %4
 [Ac]2 [Ac]2 [Bd]2 | [ce]2 !>![ca]4 | z2 [Bdg]2 [Bdg]2 | A,2 [cea]2 z2 ::"_" edBdE,d | edBdE,d | %10
 ecAcE,c | ecAcE,c | edBdE,d | edBdE,d | (fe)cedB |{/G} A2 A,2 z2 :| %16
V:2
 x6 | x6 | E,6 | A,6 | x6 | x6 | E,6 | x6 :: x6 | x6 | x6 | x6 | x6 | x6 | x6 | x6 :| %16
V:3
 [!3!A,!2!C]2 [!3!A,!2!C]2 [!3!B,!2!D]2 | [!2!C!1!E]2 [!2!C!1!A]4 | %2
 x2 [!3!B,!2!D!1!G]2 [!3!B,!2!D!1!G]2 | x2 [!3!C!2!E!1!A]2 [!3!C!2!E!1!A]2 | %4
 [!3!A,!2!C]2 [!3!A,!2!C]2 [!3!B,!2!D]2 | [!2!C!1!E]2 [!2!C!1!A]4 | %6
 x2 [!3!B,!2!D!1!G]2 [!3!B,!2!D!1!G]2 | !5!A,,2 [!3!C!2!E!1!A]2 x2 :: %8
 !1!E !2!D !3!B, !2!D !6!E,, !2!D | !1!E !2!D !3!B, !2!D !6!E,, !2!D | %10
 !1!E !2!C !3!A, !2!C !6!E,, !2!C | !1!E !2!C !3!A, !2!C !6!E,, !2!C | %12
 !1!E !2!D !3!B, !2!D !6!E,, !2!D | !1!E !2!D !3!B, !2!D !6!E,, !2!D | %14
 (!1!F !1!E) !2!C !1!E !2!D !2!B, |{/!3!G,} !3!A,2 !5!A,,2 x2 :| %16
V:4
 x6 | x6 | !6!E,,6 | !5!A,,6 | x6 | x6 | !6!E,,6 | x6 :: x6 | x6 | x6 | x6 | x6 | x6 | x6 | x6 :| %16
V:5
"_" A,AA,AA,A | A,AA,AA,A | .E,.E(^DE).F.G | .A(GA).E.C.E | A,AA,AA,A | A,AA,AA,A | %6
 .E,.E(^DE).F.G | A2 A,2 z2 ::"_" [E,Bdg]2 z2 [E,Bdg]2 | [E,Bdg]2 z2 [E,Bdg]2 | %10
 [A,cea]2 z2 [A,cea]2 | [A,cea]2 z2 [A,cea]2 | [E,Bdg]2 z2 [E,Bdg]2 | [E,Bdg]2 z2 [E,Bdg]2 | %14
 [A,cea]2 z2 [E,Bdg]2 | A,2 [cea]2 z2 :| %16
V:6
 !5!A,, !3!A, !5!A,, !3!A, !5!A,, !3!A, | !5!A,, !3!A, !5!A,, !3!A, !5!A,, !3!A, | %2
 !6!E,, !4!E, (!4!^D, !4!E,) !4!F, !3!G, | !3!A, (!3!G, !3!A,) !4!E, !5!C, !4!E, | %4
 !5!A,, !3!A, !5!A,, !3!A, !5!A,, !3!A, | !5!A,, !3!A, !5!A,, !3!A, !5!A,, !3!A, | %6
 !6!E,, !4!E, (!4!^D, !4!E,) !4!F, !3!G, | !3!A,2 !5!A,,2 x2 :: %8
 [!6!E,,!3!B,!2!D!1!G]2 x2 [!6!E,,!3!B,!2!D!1!G]2 | %9
 [!6!E,,!3!B,!2!D!1!G]2 x2 [!6!E,,!3!B,!2!D!1!G]2 | %10
 [!5!A,,!3!C!2!E!1!A]2 x2 [!5!A,,!3!C!2!E!1!A]2 | [!5!A,,!3!C!2!E!1!A]2 x2 [!5!A,,!3!C!2!E!1!A]2 | %12
 [!6!E,,!3!B,!2!D!1!G]2 x2 [!6!E,,!3!B,!2!D!1!G]2 | %13
 [!6!E,,!3!B,!2!D!1!G]2 x2 [!6!E,,!3!B,!2!D!1!G]2 | %14
 [!5!A,,!3!C!2!E!1!A]2 x2 [!6!E,,!3!B,!2!D!1!G]2 | !5!A,,2 [!3!C!2!E!1!A]2 x2 :| %16

